X:905
T: Old Slipper Shoe
T: tSeanbhr\'oig\'in Bhog
S: B.Breathnach: "Ceol Rince na hEireann" II/277
Z: B.Black
L: 1/8
M: 4/4
R: reel
K: G
Addc A2 GE|EDAB c2 AG|Addc A2 GE|EDG>E ED D2 :|
f2 Ad e2 fe|dcAB cBcd|(3efg fg edcd|eaag edcd|
(3efg fd e2 fe|dcAB c2 AG|Addc A2 GE|EDG>E ED D2 ||

